dist/assets/images/icons/phoneWhite.svg

<svg width="58" height="59" viewBox="0 0 58 59" fill="none" xmlns="http://www.w3.org/2000/svg">
<path d="M41.5028 22.625L38.1938 19.3157L32.5202 24.9893L34.8846 27.3537L26.376 35.8586L24.0116 33.4942L18.3417 39.1679L21.6509 42.4771C22.6893 43.5155 24.1085 44.0833 25.4308 44.0833C26.7531 44.0833 28.1722 43.5155 29.2106 42.4771L41.4994 30.1884C43.5833 28.1082 43.5833 24.7054 41.5028 22.625ZM40.8421 29.524L28.5534 41.8124C27.702 42.6641 26.6636 43.1347 25.4345 43.1347C24.2054 43.1347 23.167 42.6607 22.3156 41.8124L19.6674 39.1642L24.015 34.8165L26.3794 37.1809L36.2069 27.35L33.8425 24.9856L38.1901 20.638L40.8384 23.2862C42.5415 24.9893 42.5415 27.8243 40.8421 29.524Z" fill="#fff"/>
<path fill-rule="evenodd" clip-rule="evenodd" d="M38.1946 18.9016L41.7119 22.4193C43.9075 24.6149 43.9075 28.2044 41.7083 30.3997L29.4198 42.6883C28.3271 43.7809 26.8334 44.3808 25.4315 44.3808C24.0296 44.3808 22.5359 43.7809 21.4433 42.6883L17.9257 39.1707L24.0123 33.0801L26.3767 35.4446L34.4685 27.3564L32.1041 24.9921L38.1946 18.9016ZM32.9377 24.9921L35.3022 27.3565L26.3767 36.2781L24.0124 33.9138L18.7591 39.1705L21.8601 42.2715C22.8442 43.2556 24.1888 43.7913 25.4315 43.7913C26.6742 43.7913 28.0188 43.2556 29.003 42.2715L41.2917 29.9827C43.2603 28.0177 43.2605 24.8015 41.2951 22.8361L38.1946 19.7353L32.9377 24.9921ZM38.1909 20.2239L41.0475 23.0806C42.8656 24.8986 42.8659 27.9202 41.0513 29.7351L28.7625 42.0235C28.7625 42.0235 28.7625 42.0235 28.7625 42.0235C27.8603 42.9261 26.7485 43.4322 25.4352 43.4322C24.1214 43.4322 23.01 42.9224 22.1083 42.0239L19.2513 39.1669L24.0157 34.4024L26.3801 36.7668L35.7907 27.3527L33.4264 24.9884L38.1909 20.2239ZM34.26 24.9884L36.6244 27.3528L26.3801 37.6005L24.0157 35.2361L20.0849 39.1669L22.5244 41.6064C23.3255 42.4046 24.2908 42.8427 25.4352 42.8427C26.5801 42.8427 27.5451 42.4076 28.3456 41.6068L40.6344 29.3183C42.2186 27.7339 42.2189 25.0855 40.6307 23.4974L38.1909 21.0575L34.26 24.9884Z" fill="#fff"/>
<path fill-rule="evenodd" clip-rule="evenodd" d="M21.284 22.0502C18.7881 24.5462 18.7881 28.5929 21.284 31.0889L20.0336 32.3393C16.8471 29.1528 16.8471 23.9864 20.0336 20.7998C23.2201 17.6133 28.3866 17.6133 31.5731 20.7998L30.3227 22.0502C27.8267 19.5543 23.78 19.5543 21.284 22.0502Z" fill="#fff"/>
<path fill-rule="evenodd" clip-rule="evenodd" d="M19.092 19.865C15.387 23.57 15.387 29.577 19.092 33.282L17.8416 34.5324C13.446 30.1368 13.446 23.0102 17.8416 18.6146C22.2372 14.219 29.3639 14.219 33.7595 18.6146L32.5091 19.865C28.804 16.16 22.797 16.16 19.092 19.865Z" fill="#fff"/>
</svg>

<svg width="58" height="59" fill="none" xmlns="http://www.w3.org/2000/svg"><path d="M41.503 22.625l-3.31-3.31-5.673 5.674 2.365 2.365-8.509 8.505-2.364-2.365-5.67 5.674 3.309 3.31c1.038 1.038 2.457 1.605 3.78 1.605 1.322 0 2.741-.567 3.78-1.606l12.288-12.289c2.084-2.08 2.084-5.483.004-7.563zm-.66 6.899l-12.29 12.288c-.851.852-1.89 1.323-3.119 1.323-1.229 0-2.267-.474-3.118-1.323l-2.649-2.648 4.348-4.348 2.364 2.365 9.828-9.831-2.364-2.364 4.347-4.348 2.648 2.648c1.703 1.703 1.703 4.538.004 6.238z" fill="#fff"/><path fill-rule="evenodd" clip-rule="evenodd" d="M38.195 18.902l3.517 3.517c2.195 2.196 2.195 5.785-.004 7.98L29.42 42.69c-1.093 1.092-2.587 1.692-3.989 1.692-1.401 0-2.895-.6-3.988-1.693l-3.517-3.517 6.086-6.09 2.365 2.364 8.091-8.089-2.364-2.364 6.09-6.09zm-5.257 6.09l2.364 2.364-8.925 8.922-2.365-2.364-5.253 5.256 3.101 3.102c.984.984 2.329 1.52 3.572 1.52 1.242 0 2.587-.536 3.571-1.52l12.289-12.29a5.065 5.065 0 00.003-7.146l-3.1-3.1-5.257 5.256zm5.253-4.768l2.856 2.857c1.819 1.818 1.819 4.84.004 6.654L28.762 42.023c-.902.903-2.014 1.41-3.327 1.41-1.314 0-2.425-.51-3.327-1.41l-2.857-2.856 4.765-4.765 2.364 2.365 9.41-9.414-2.364-2.365 4.765-4.764zm-3.931 4.764l2.364 2.365L26.38 37.6l-2.364-2.364-3.931 3.93 2.44 2.44c.8.799 1.766 1.237 2.91 1.237 1.145 0 2.11-.435 2.91-1.236l12.29-12.289c1.584-1.584 1.584-4.233-.004-5.82l-2.44-2.44-3.931 3.93zM21.284 22.05a6.391 6.391 0 000 9.039l-1.25 1.25a8.16 8.16 0 0111.54-11.54l-1.251 1.251a6.391 6.391 0 00-9.039 0z" fill="#fff"/><path fill-rule="evenodd" clip-rule="evenodd" d="M19.092 19.865a9.487 9.487 0 000 13.417l-1.25 1.25c-4.396-4.395-4.396-11.522 0-15.917 4.395-4.396 11.522-4.396 15.918 0l-1.25 1.25a9.487 9.487 0 00-13.418 0z" fill="#fff"/></svg>
